images/logo-white.svg

<svg xmlns="http://www.w3.org/2000/svg" fill="none" viewBox="0 0 148 114">
  <path stroke="#fff" stroke-width="6" d="M7 3h136v102H7z"/>
  <path fill="#fff" d="M22.1545 37.25c-2.5667 0-4.8834-.5-6.95-1.5-2.0667-1-3.85-2.35-5.35004-4.05-1.5-1.7333-2.66667-3.6667-3.5-5.8-.8-2.1667-1.2-4.3833-1.2-6.65 0-2.3667.43333-4.6167 1.3-6.75.86666-2.1667 2.06666-4.08333 3.60004-5.75 1.5333-1.7 3.3333-3.03333 5.4-4 2.1-1 4.3666-1.5 6.8-1.5 2.5333 0 4.8333.51667 6.9 1.55 2.1 1.03333 3.8833 2.41666 5.35 4.15 1.5 1.73333 2.65 3.6667 3.45 5.8.8333 2.1333 1.25 4.3167 1.25 6.55 0 2.3667-.4334 4.6333-1.3 6.8-.8334 2.1333-2.0167 4.05-3.55 5.75-1.5334 1.6667-3.35 2.9833-5.45 3.95-2.0667.9667-4.3167 1.45-6.75 1.45Zm-11.3-18c0 1.6667.2666 3.2833.8 4.85.5333 1.5667 1.2833 2.9667 2.25 4.2 1 1.2 2.2 2.15 3.6 2.85 1.4.7 2.9666 1.05 4.7 1.05 1.8 0 3.4-.3667 4.8-1.1 1.4-.7333 2.5666-1.7167 3.5-2.95.9666-1.2667 1.7-2.6667 2.2-4.2.5-1.5667.75-3.1333.75-4.7 0-1.6667-.2667-3.2667-.8-4.8-.5-1.5667-1.25-2.95-2.25-4.15-1-1.23334-2.2-2.2-3.6-2.9-1.3667-.7-2.9-1.05-4.6-1.05-1.8 0-3.4.36667-4.8 1.1s-2.5834 1.71667-3.55 2.95c-.9667 1.2333-1.7167 2.6167-2.25 4.15-.5 1.5333-.75 3.1-.75 4.7ZM90.1521 1.5V37h-5.65V21.35h-17.9V37h-5.6V1.5h5.6v14.85h17.9V1.5h5.65ZM128.91 37.25c-2.566 0-4.883-.5-6.95-1.5-2.066-1-3.85-2.35-5.35-4.05-1.5-1.7333-2.666-3.6667-3.5-5.8-.8-2.1667-1.2-4.3833-1.2-6.65 0-2.3667.434-4.6167 1.3-6.75.867-2.1667 2.067-4.08333 3.6-5.75 1.534-1.7 3.334-3.03333 5.4-4 2.1-1 4.367-1.5 6.8-1.5 2.534 0 4.834.51667 6.9 1.55 2.1 1.03333 3.884 2.41666 5.35 4.15 1.5 1.73333 2.65 3.6667 3.45 5.8.834 2.1333 1.25 4.3167 1.25 6.55 0 2.3667-.433 4.6333-1.3 6.8-.833 2.1333-2.016 4.05-3.55 5.75-1.533 1.6667-3.35 2.9833-5.45 3.95-2.066.9667-4.316 1.45-6.75 1.45Zm-11.3-18c0 1.6667.267 3.2833.8 4.85.534 1.5667 1.284 2.9667 2.25 4.2 1 1.2 2.2 2.15 3.6 2.85 1.4.7 2.967 1.05 4.7 1.05 1.8 0 3.4-.3667 4.8-1.1 1.4-.7333 2.567-1.7167 3.5-2.95.967-1.2667 1.7-2.6667 2.2-4.2.5-1.5667.75-3.1333.75-4.7 0-1.6667-.266-3.2667-.8-4.8-.5-1.5667-1.25-2.95-2.25-4.15-1-1.23334-2.2-2.2-3.6-2.9-1.366-.7-2.9-1.05-4.6-1.05-1.8 0-3.4.36667-4.8 1.1s-2.583 1.71667-3.55 2.95c-.966 1.2333-1.716 2.6167-2.25 4.15-.5 1.5333-.75 3.1-.75 4.7Zm-83.895 22.2h-11.8V72h-5.65V41.45H4.41504V36.5H33.715v4.95Zm34.6106 25.6V72h-24.35V36.5h23.9v4.95h-18.3v10.1h15.85v4.65h-15.85v10.85h18.75ZM79.6525 72V36.5h24.9505v4.9H85.2525v9.95h10.4c3.9334 0 6.8835.9333 8.8505 2.8 1.966 1.8333 2.95 4.2667 2.95 7.3 0 2.0333-.434 3.85-1.3 5.45-.834 1.5667-2.1 2.8167-3.8 3.75-1.667.9-3.7838 1.35-6.3505 1.35h-16.35Zm5.6-4.9h10c1.5334 0 2.7667-.2833 3.7-.85.9667-.5667 1.6505-1.2833 2.0505-2.15.433-.9.65-1.8333.65-2.8 0-.9667-.184-1.8667-.55-2.7-.367-.8333-1.034-1.5-2.0005-2-.9333-.5333-2.25-.8-3.95-.8h-9.9v11.3Zm57.3055-.05V72h-24.35V36.5h23.9v4.95h-18.3v10.1h15.85v4.65h-15.85v10.85h18.75ZM33.5904 71.5V107h-5.65V91.35h-17.9V107H4.44043V71.5h5.59997v14.85h17.9V71.5h5.65Zm19.2582 0h5.3l13.8 35.5h-5.9l-3.75-9.65h-13.7l-3.7 9.65h-5.95l13.9-35.5Zm8.35 21.7-5.7-15.55-5.9 15.55h11.6Zm10.5403 20.6v-11.75h1.7c.9333 0 1.7333-.367 2.4-1.1.7-.733 1.2833-1.9 1.75-3.5.5-1.6.8833-3.7 1.15-6.3.3-2.6333.5166-5.85.65-9.65l.25-10h22.8501v30.55h4.5v11.75h-4.95V107H76.6889v6.8h-4.95Zm8.8-11.75h16.3v-25.6h-12l-.15 5.8c-.1 3.8333-.3 7.0833-.6 9.75-.3 2.6333-.7334 4.7667-1.3 6.4-.5667 1.633-1.3167 2.85-2.25 3.65Zm48.1731 5.2c-2.567 0-4.883-.5-6.95-1.5s-3.85-2.35-5.35-4.05c-1.5-1.7333-2.667-3.6667-3.5-5.8-.8-2.1667-1.2-4.3833-1.2-6.65 0-2.3667.433-4.6167 1.3-6.75.867-2.1667 2.067-4.0833 3.6-5.75 1.533-1.7 3.333-3.0333 5.4-4 2.1-1 4.367-1.5 6.8-1.5 2.533 0 4.833.5167 6.9 1.55 2.1 1.0333 3.883 2.4167 5.35 4.15 1.5 1.7333 2.65 3.6667 3.45 5.8.833 2.1333 1.25 4.3167 1.25 6.55 0 2.3667-.433 4.6333-1.3 6.8-.833 2.1333-2.017 4.05-3.55 5.75-1.533 1.667-3.35 2.983-5.45 3.95-2.067.967-4.317 1.45-6.75 1.45Zm-11.3-18c0 1.6667.267 3.2833.8 4.85.533 1.5667 1.283 2.9667 2.25 4.2 1 1.2 2.2 2.15 3.6 2.85 1.4.7 2.967 1.05 4.7 1.05 1.8 0 3.4-.367 4.8-1.1 1.4-.733 2.567-1.7167 3.5-2.95.967-1.2667 1.7-2.6667 2.2-4.2.5-1.5667.75-3.1333.75-4.7 0-1.6667-.267-3.2667-.8-4.8-.5-1.5667-1.25-2.95-2.25-4.15-1-1.2333-2.2-2.2-3.6-2.9-1.367-.7-2.9-1.05-4.6-1.05-1.8 0-3.4.3667-4.8 1.1-1.4.7333-2.583 1.7167-3.55 2.95-.967 1.2333-1.717 2.6167-2.25 4.15-.5 1.5333-.75 3.1-.75 4.7Z"/>
</svg>

<svg width="148" height="114" viewBox="0 0 148 114" fill="none" xmlns="http://www.w3.org/2000/svg">
<path d="M7 3H143V105H7V3Z" stroke="white" stroke-width="6"/>
<path d="M22.1545 37.25C19.5878 37.25 17.2711 36.75 15.2045 35.75C13.1378 34.75 11.3545 33.4 9.85446 31.7C8.35446 29.9667 7.18779 28.0333 6.35446 25.9C5.55446 23.7333 5.15446 21.5167 5.15446 19.25C5.15446 16.8833 5.58779 14.6333 6.45446 12.5C7.32112 10.3333 8.52112 8.41667 10.0545 6.75C11.5878 5.05 13.3878 3.71667 15.4545 2.75C17.5545 1.75 19.8211 1.25 22.2545 1.25C24.7878 1.25 27.0878 1.76667 29.1545 2.8C31.2545 3.83333 33.0378 5.21666 34.5045 6.95C36.0045 8.68333 37.1545 10.6167 37.9545 12.75C38.7878 14.8833 39.2045 17.0667 39.2045 19.3C39.2045 21.6667 38.7711 23.9333 37.9045 26.1C37.0711 28.2333 35.8878 30.15 34.3545 31.85C32.8211 33.5167 31.0045 34.8333 28.9045 35.8C26.8378 36.7667 24.5878 37.25 22.1545 37.25ZM10.8545 19.25C10.8545 20.9167 11.1211 22.5333 11.6545 24.1C12.1878 25.6667 12.9378 27.0667 13.9045 28.3C14.9045 29.5 16.1045 30.45 17.5045 31.15C18.9045 31.85 20.4711 32.2 22.2045 32.2C24.0045 32.2 25.6045 31.8333 27.0045 31.1C28.4045 30.3667 29.5711 29.3833 30.5045 28.15C31.4711 26.8833 32.2045 25.4833 32.7045 23.95C33.2045 22.3833 33.4545 20.8167 33.4545 19.25C33.4545 17.5833 33.1878 15.9833 32.6545 14.45C32.1545 12.8833 31.4045 11.5 30.4045 10.3C29.4045 9.06666 28.2045 8.1 26.8045 7.4C25.4378 6.7 23.9045 6.35 22.2045 6.35C20.4045 6.35 18.8045 6.71667 17.4045 7.45C16.0045 8.18333 14.8211 9.16667 13.8545 10.4C12.8878 11.6333 12.1378 13.0167 11.6045 14.55C11.1045 16.0833 10.8545 17.65 10.8545 19.25ZM90.1521 1.5V37H84.5021V21.35H66.6021V37H61.0021V1.5H66.6021V16.35H84.5021V1.5H90.1521ZM128.91 37.25C126.344 37.25 124.027 36.75 121.96 35.75C119.894 34.75 118.11 33.4 116.61 31.7C115.11 29.9667 113.944 28.0333 113.11 25.9C112.31 23.7333 111.91 21.5167 111.91 19.25C111.91 16.8833 112.344 14.6333 113.21 12.5C114.077 10.3333 115.277 8.41667 116.81 6.75C118.344 5.05 120.144 3.71667 122.21 2.75C124.31 1.75 126.577 1.25 129.01 1.25C131.544 1.25 133.844 1.76667 135.91 2.8C138.01 3.83333 139.794 5.21666 141.26 6.95C142.76 8.68333 143.91 10.6167 144.71 12.75C145.544 14.8833 145.96 17.0667 145.96 19.3C145.96 21.6667 145.527 23.9333 144.66 26.1C143.827 28.2333 142.644 30.15 141.11 31.85C139.577 33.5167 137.76 34.8333 135.66 35.8C133.594 36.7667 131.344 37.25 128.91 37.25ZM117.61 19.25C117.61 20.9167 117.877 22.5333 118.41 24.1C118.944 25.6667 119.694 27.0667 120.66 28.3C121.66 29.5 122.86 30.45 124.26 31.15C125.66 31.85 127.227 32.2 128.96 32.2C130.76 32.2 132.36 31.8333 133.76 31.1C135.16 30.3667 136.327 29.3833 137.26 28.15C138.227 26.8833 138.96 25.4833 139.46 23.95C139.96 22.3833 140.21 20.8167 140.21 19.25C140.21 17.5833 139.944 15.9833 139.41 14.45C138.91 12.8833 138.16 11.5 137.16 10.3C136.16 9.06666 134.96 8.1 133.56 7.4C132.194 6.7 130.66 6.35 128.96 6.35C127.16 6.35 125.56 6.71667 124.16 7.45C122.76 8.18333 121.577 9.16667 120.61 10.4C119.644 11.6333 118.894 13.0167 118.36 14.55C117.86 16.0833 117.61 17.65 117.61 19.25ZM33.715 41.45H21.915V72H16.265V41.45H4.41504V36.5H33.715V41.45ZM68.3256 67.05V72H43.9756V36.5H67.8756V41.45H49.5756V51.55H65.4256V56.2H49.5756V67.05H68.3256ZM79.6525 72V36.5H104.603V41.4H85.2525V51.35H95.6525C99.5859 51.35 102.536 52.2833 104.503 54.15C106.469 55.9833 107.453 58.4167 107.453 61.45C107.453 63.4833 107.019 65.3 106.153 66.9C105.319 68.4667 104.053 69.7167 102.353 70.65C100.686 71.55 98.5692 72 96.0025 72H79.6525ZM85.2525 67.1H95.2525C96.7859 67.1 98.0192 66.8167 98.9525 66.25C99.9192 65.6833 100.603 64.9667 101.003 64.1C101.436 63.2 101.653 62.2667 101.653 61.3C101.653 60.3333 101.469 59.4333 101.103 58.6C100.736 57.7667 100.069 57.1 99.1025 56.6C98.1692 56.0667 96.8525 55.8 95.1525 55.8H85.2525V67.1ZM142.558 67.05V72H118.208V36.5H142.108V41.45H123.808V51.55H139.658V56.2H123.808V67.05H142.558ZM33.5904 71.5V107H27.9404V91.35H10.0404V107H4.44043V71.5H10.0404V86.35H27.9404V71.5H33.5904ZM52.8486 71.5H58.1486L71.9486 107H66.0486L62.2986 97.35H48.5986L44.8986 107H38.9486L52.8486 71.5ZM61.1986 93.2L55.4986 77.65L49.5986 93.2H61.1986ZM71.7389 113.8V102.05H73.4389C74.3722 102.05 75.1722 101.683 75.8389 100.95C76.5389 100.217 77.1222 99.05 77.5889 97.45C78.0889 95.85 78.4722 93.75 78.7389 91.15C79.0389 88.5167 79.2555 85.3 79.3889 81.5L79.6389 71.5H102.489V102.05H106.989V113.8H102.039V107H76.6889V113.8H71.7389ZM80.5389 102.05H96.8389V76.45H84.8389L84.6889 82.25C84.5889 86.0833 84.3889 89.3333 84.0889 92C83.7889 94.6333 83.3555 96.7667 82.7889 98.4C82.2222 100.033 81.4722 101.25 80.5389 102.05ZM128.712 107.25C126.145 107.25 123.829 106.75 121.762 105.75C119.695 104.75 117.912 103.4 116.412 101.7C114.912 99.9667 113.745 98.0333 112.912 95.9C112.112 93.7333 111.712 91.5167 111.712 89.25C111.712 86.8833 112.145 84.6333 113.012 82.5C113.879 80.3333 115.079 78.4167 116.612 76.75C118.145 75.05 119.945 73.7167 122.012 72.75C124.112 71.75 126.379 71.25 128.812 71.25C131.345 71.25 133.645 71.7667 135.712 72.8C137.812 73.8333 139.595 75.2167 141.062 76.95C142.562 78.6833 143.712 80.6167 144.512 82.75C145.345 84.8833 145.762 87.0667 145.762 89.3C145.762 91.6667 145.329 93.9333 144.462 96.1C143.629 98.2333 142.445 100.15 140.912 101.85C139.379 103.517 137.562 104.833 135.462 105.8C133.395 106.767 131.145 107.25 128.712 107.25ZM117.412 89.25C117.412 90.9167 117.679 92.5333 118.212 94.1C118.745 95.6667 119.495 97.0667 120.462 98.3C121.462 99.5 122.662 100.45 124.062 101.15C125.462 101.85 127.029 102.2 128.762 102.2C130.562 102.2 132.162 101.833 133.562 101.1C134.962 100.367 136.129 99.3833 137.062 98.15C138.029 96.8833 138.762 95.4833 139.262 93.95C139.762 92.3833 140.012 90.8167 140.012 89.25C140.012 87.5833 139.745 85.9833 139.212 84.45C138.712 82.8833 137.962 81.5 136.962 80.3C135.962 79.0667 134.762 78.1 133.362 77.4C131.995 76.7 130.462 76.35 128.762 76.35C126.962 76.35 125.362 76.7167 123.962 77.45C122.562 78.1833 121.379 79.1667 120.412 80.4C119.445 81.6333 118.695 83.0167 118.162 84.55C117.662 86.0833 117.412 87.65 117.412 89.25Z" fill="white"/>
</svg>
